X:1
T:Go, Tell Them
T:Go, Tell Them
T:Carl Fisher
T:Jennie Crawford Goodspeed, 1906
T:Public Domain Courtesy of the Cyber Hymnal™
T:Public Domain Courtesy of the Cyber Hymnal™
C:Carl Fisher
Z:Public Domain
Z:Courtesy of the Cyber Hymnal™
%%score ( 1 2 ) ( 3 4 )
L:1/8
Q:1/4=100
M:6/8
K:F
V:1 treble 
V:2 treble 
V:3 bass 
V:4 bass 
V:1
 [FA][FA][FA] [FB]2 [FB] | [FA]3 [CF]3 | [CE][CE][CF] [EG]2 [EA] | F3- F2 z | %4
w: 1.~Per- ish- ing souls are|wait- ing|Out- side the fold to-|night, *|
w: 2.~Go to the weak, the|fall- en,|Freight- ed with sin and|shame, *|
w: 3.~Tell them, the vil- est|sin- ner,|Lost in the dark- est|main, *|
w: 4.~Then let us sing God’s|prais- es,|Sing of His love to|men, *|
 [Fc][Fc][Fc] [Fd]2 [Fd] | [Fc]3 [FA]3 | [DF][DE][DF] [FA]2 [FG] | [EG]3- [EG]2 z | %8
w: Bur- dened with sin and|sor- row,|See- ing no ray of|light. *|
w: Low in the dust you’ll|find them,|Whis- per the Sav- ior’s|name. *|
w: Long- ing to know the|Fa- ther,|Call- ing on His dear|name, *|
w: How He for- gives the|sin- ner,|Tell of it once a-|gain; *|
 [FA][FA][FA] [FB]2 [FB] | [FA]3 [CF]3 | [Fc][Fc][Fc] [Fd]2 [Fd] | [Fc]3- [Fc]2 z | %12
w: Some- one go tell the|sto- ry,|Pray that you make it|plain: *|
w: Tell of His love so|bound- less,|Deep- er than a- ny|sea; *|
w: Some- where a- mid the|dark- ness|Touch- es the Sav- ior’s|hand, *|
w: And when our boat is|an- chored|On the e- ter- nal|shore, *|
 [Fd][Fd][Fd] [FB]2 [Fd] | [Fc]3 [Fc]2 [FB] | [FA][FA][FA] [EG]2 [CG] | [CF]3- [CF]2 z || %16
w: How Je- sus died on|Cal- vary, To|cleanse them from ev- ery|stain. *|
w: Fresh as the dew- drops|fall- ing, Go,|tell them, this love is|free. *|
w: Feel- ing new life with-|in him, Earth|seems like a fa- ther-|land. *|
w: Giv- ing to God the|glo- ry, We’ll|praise Him for- ev- er-|more. *|
"^Refrain" G3 c3 | A3 [Fc]3 | [Fd][Fd][Fd] [Ff]2 [Fd] | [Fc]3- [Fc]2 z | [Fd][Fd][Fd] [FB]2 [Fd] | %21
w: |||||
w: Go! go!|Tell them,|Tell them of Cal- va-|ry; *|Tell of His grace and|
w: |||||
w: |||||
 [Fc]3 [Fc]2 [FB] | [FA][FA][FA] [EG]2 [CG] | [CF]3- [CF]2 z |] %24
w: |||
w: mer- cy, Go,|tell them, His love is|free. *|
w: |||
w: |||
V:2
 x6 | x6 | x6 | F3- F2 x | x6 | x6 | x6 | x6 | x6 | x6 | x6 | x6 | x6 | x6 | x6 | x6 || %16
 (EEE) (E2 E) | (FFF) x3 | x6 | x6 | x6 | x6 | x6 | x6 |] %24
V:3
 [F,C][F,C][F,C] [F,D]2 [F,D] | [F,C]3 [F,A,]3 | [C,G,][C,G,][C,A,] [C,B,]2 [C,C] | %3
w: ~ ~ ~ ~ ~|~ ~|~ ~ ~ ~ ~|
 [F,A,]3- [F,A,]2 z | [F,A,][F,A,][F,A,] [F,B,]2 [F,B,] | [F,A,]3 [F,C]3 | %6
w: ~ *|~ ~ ~ ~ ~|~ ~|
 [G,=B,][G,B,][G,B,] [D,B,]2 [G,,B,] | [C,C]3- [C,C]2 z | [F,C][F,C][F,C] [F,D]2 [F,D] | %9
w: ~ ~ ~ ~ ~|~ *|~ ~ ~ ~ ~|
 [F,C]3 [F,A,]3 | [F,A,][F,A,][F,A,] [F,B,]2 [F,B,] | [F,A,]3- [F,A,]2 z | %12
w: ~ ~|~ ~ ~ ~ ~|~ *|
 [B,,B,][B,,B,][B,,B,] [D,B,]2 [B,,B,] | [F,A,]3 [A,,C]2 [B,,D] | [C,C][C,C][C,C] [C,B,]2 [C,B,] | %15
w: ~ ~ ~ ~ ~|~ ~ ~|~ ~ ~ ~ ~|
 [F,A,]3- [F,A,]2 z || [C,C][C,C][C,C] [C,G,]2 [C,C] | [F,C][F,C][F,C] [F,A,]3 | %18
w: ~ *|Go to them, tell them,|Tell of His love,|
 B,3 [B,,D]2 [B,,B,] | [F,A,]2 [F,A,] [F,A,]2 z | [B,,B,][B,,B,][B,,B,] [D,B,]2 [B,,B,] | %21
w: Tell them of|Cal- va- ry.||
 [F,A,]3 [A,,C]2 [B,,D] | [C,C][C,C][C,C] [C,B,]2 [C,B,] | [F,A,]3- [F,A,]2 z |] %24
w: |||
V:4
 x6 | x6 | x6 | x6 | x6 | x6 | x6 | x6 | x6 | x6 | x6 | x6 | x6 | x6 | x6 | x6 || x6 | x6 | %18
 B,3 x3 | x6 | x6 | x6 | x6 | x6 |] %24

